X:1
T:Title
%%score ( 1 2 ) ( 3 4 )
L:1/8
Q:1/4=90
M:2/4
K:G
V:1 treble nm="Strings 1, Treble"
V:2 treble 
V:3 bass nm="Strings 1, Bass"
V:4 bass 
V:1
 z2 z D | [DG]>[DG] [DG]>[DA] | [GB]2 D>D | [DG]>[DF] [DG]>[DA] | [GB]3 [GB] | %5
 [FA]>[EG] [FA]>[GB] | [Ac]2 [FB]>[EA] | [EG]>[EG] [DF]>[DG] | [DA]3 D | [DG]>[DG] [DG]>[DA] | %10
 [GB]2 D>D | [DG]>[DF] [DG]>[DA] | [GB]4 | [FA]>[EG] [FA]>[GB] | [Ac]2 [GB]>[FA] | %15
 G4[Q:1/4=12][Q:1/4=90] | [GB]2 [GB]>[Ac] | [Bd]4 | [DG]2 [DG]>[DA] | [GB]4 | A>^G [FA]>[=GB] | %21
 [Ac]2 [GB]>[FA] | [DG]2 [DF]>[EG] | [FA]3 D | [DG]>[DG] [DG]>[DA] | [GB]2 D>D | %26
 [DG]>[DF] [DG]>[DA] | [GB]4 | [FA]>[EG] [FA]>[GB] | [Ac]2 [GB]>[FA] | G4[Q:1/4=12][Q:1/4=90] |] %31
V:2
 x4 | x4 | x4 | x4 | x4 | x4 | x4 | x4 | x4 | x4 | x4 | x4 | x4 | x4 | x4 | x4 | x4 | x4 | x4 | %19
 x4 | D2 z2 | x4 | x4 | x4 | x4 | x4 | x4 | x4 | x4 | x4 | x4 |] %31
V:3
 z2 z [D,G,] | [G,B,]>[G,B,] [G,B,]>[G,C] | [G,D]2 [D,B,]>[D,B,] | [G,B,]>[F,A,] [G,B,]>[A,C] | %4
w: 1.~I~|hear~ the~ Sav ior~|plead ing,~ oh,~|lis ten~ to~ His~|
 [G,D]3 [G,D] | [D,D]>[D,D] [D,D]>[D,D] | [D,C]2 [D,D]>[D,B,] | [G,B,]>[G,B,] [D,D]>[D,D] | %8
w: call!~ The~|bless ed~ in vi|ta tion,~ it~|reach es~ un to~|
 [D,D]3 [D,G,] | [G,B,]>[G,B,] [G,B,]>[G,C] | [G,D]2 [D,B,]>[D,B,] | [G,B,]>[F,A,] [G,B,]>[A,C] | %12
w: all:~ "Oh,~|come,~ and~ I~ will~|heal~ you,~ oh,~|come,~ I'll~ make~ you~|
 [G,D]4 | [D,D]>[D,B,] [D,C]>[G,D] | [C,E]2 D>C | [G,,B,]4 | [G,D]2 [G,D]>[G,D] | [G,D]4 | %18
w: free."~|Come~ to~ Je sus~|one~ and~ *|all.~|||
 [G,B,]2 [B,D]>[A,C] | [G,B,]4 | [D,D]2 [D,D]>[G,D] | [A,D]2 [D,D]2 | [G,B,]2 [F,B,]>[E,C] | %23
w: |||||
 [D,D]3 [D,G,] | [G,B,]>[G,B,] [G,B,]>[G,C] | [G,D]2 [D,B,]>[D,B,] | [G,B,]>[F,A,] [G,B,]>[A,C] | %27
w: ||||
 [G,D]4 | [D,D]>[D,B,] [D,C]>[G,D] | [C,E]2 D>C | [G,,B,]4 |] %31
w: ||||
V:4
 x4 | x4 | x4 | x4 | x4 | x4 | x4 | x4 | x4 | x4 | x4 | x4 | x4 | x4 | z2 D,2 | x4 | x4 | x4 | x4 | %19
 x4 | x4 | x4 | x4 | x4 | x4 | x4 | x4 | x4 | x4 | z2 D,2 | x4 |] %31

